X: 1
T: Dowd
R: reel
M: 4/4
K: Edor
DFAF GFEF|D2FA dABA|~F3A ~G3B|AGFD A,B,CA,|
DFAF GFEF|D2FA dABA|~F3A ~G3B|1 AGFD EDDA,:|2 AGFD EDD2||
|:fd~d2 g2ag|fedf ecA2|fd~d2 gfec|dcde fddA|
